package/converter/svg/light/toggle-off.svg

<svg xmlns="http://www.w3.org/2000/svg" viewBox="0 0 576 512"><!-- Font Awesome Pro 6.0.0-alpha2 by @fontawesome - https://fontawesome.com License - https://fontawesome.com/license (Commercial License) --><path d="M416 96H160C71.635 96 0 167.635 0 256S71.635 416 160 416H416C504.365 416 576 344.365 576 256S504.365 96 416 96ZM416 384H160C89.42 384 32 326.58 32 256S89.42 128 160 128H416C486.58 128 544 185.42 544 256S486.58 384 416 384ZM160 160C106.98 160 64 202.98 64 256S106.98 352 160 352S256 309.02 256 256S213.02 160 160 160ZM160 320C124.711 320 96 291.289 96 256S124.711 192 160 192S224 220.711 224 256S195.289 320 160 320Z"/></svg>

<svg xmlns="http://www.w3.org/2000/svg" viewBox="0 0 576 512"><!--! Font Awesome Pro 6.6.0 by @fontawesome - https://fontawesome.com License - https://fontawesome.com/license (Commercial License) Copyright 2024 Fonticons, Inc. --><path d="M416 128c70.7 0 128 57.3 128 128s-57.3 128-128 128l-256 0C89.3 384 32 326.7 32 256s57.3-128 128-128l256 0zM576 256c0-88.4-71.6-160-160-160L160 96C71.6 96 0 167.6 0 256s71.6 160 160 160l256 0c88.4 0 160-71.6 160-160zm-352 0A64 64 0 1 1 96 256a64 64 0 1 1 128 0zM64 256a96 96 0 1 0 192 0A96 96 0 1 0 64 256z"/></svg>
